plasma/desktoptheme/Materia-Mono/icons/mellowplayer.svg

<svg xmlns="http://www.w3.org/2000/svg" id="22-22-svg16" width="32" height="32" x="0" y="0" version="1.1" viewBox="-2.01 0 32 32">
 <g id="22-22-mellowplayer" transform="translate(32,10)">
  <rect id="22-22-rect4549" width="22" height="22" x="-2.01" y="0" style="opacity:0.00100002;fill:#000000;fill-opacity:1;stroke-width:1.69733691"/>
  <path id="22-22-circle2" d="m 6.99,3 a 5,5 0 0 0 -5,4.9999999 5,5 0 0 0 0.3046875,1.6875 3,3 0 0 1 2.6953125,-1.6875 3,3 0 0 1 0.00586,0 v -2.595703 c 2.941e-4,0 -0.022612,-0.2663222 0.1855468,-0.3710938 0.202273,-0.1017342 0.3964844,0.060547 0.3964844,0.060547 l 1.96875,1.1699219 A 3,3 0 0 1 9.99,5 3,3 0 0 1 11.142344,5.2324219 5,5 0 0 0 6.99,3 Z m 5.240234,3.0078125 A 3,3 0 0 1 12.99,7.9999999 a 3,3 0 0 1 -0.308594,1.31836 l 2.025391,1.2050781 c 0,0 0.283203,0.139514 0.283203,0.472656 0,0.334053 -0.287109,0.443359 -0.287109,0.443359 l -2.035157,1.208985 A 3,3 0 0 1 12.99,14 3,3 0 0 1 12.232188,15.988281 5,5 0 0 0 16.99,11 5,5 0 0 0 12.230234,6.0078125 Z M 2.2927344,12.302735 A 5,5 0 0 0 1.99,14 a 5,5 0 0 0 5,5 5,5 0 0 0 4.158203,-2.232422 A 3,3 0 0 1 9.99,17 3,3 0 0 1 7.5251562,15.705078 l -2.0605468,1.22461 c 0,0 -0.1399356,0.122228 -0.3183594,0.04297 -0.2037449,-0.0911 -0.1503906,-0.322265 -0.1503906,-0.322265 V 14 a 3,3 0 0 1 -0.00586,0 3,3 0 0 1 -2.697265,-1.697265 z" style="fill:#dfdfdf;fill-opacity:1"/>
  <path id="22-22-circle8" d="M 9.99,5 A 3,3 0 0 0 7.5466406,6.265625 l 2.6718754,1.5878909 2.464843,1.466797 A 3,3 0 0 0 12.99,7.9999999 3,3 0 0 0 9.99,5 Z m -5,2.9999999 A 3,3 0 0 0 1.99,11 a 3,3 0 0 0 3,3 3,3 0 0 0 0.00586,0 V 10.982422 7.9999999 a 3,3 0 0 0 -0.00586,0 z m 7.675781,4.6503911 -2.457031,1.458984 -2.6855469,1.595703 A 3,3 0 0 0 9.99,17 a 3,3 0 0 0 3,-3 3,3 0 0 0 -0.324219,-1.349609 z" style="opacity:0.3;fill:#dfdfdf;fill-opacity:1"/>
 </g>
 <g id="mellowplayer">
  <rect style="opacity:0.00100002;fill:#000000;fill-opacity:1;stroke-width:2.46885371" id="rect818" width="32" height="32" x="-2.01" y="0"/>
  <path id="circle862" d="M 14.99,7 A 5,5 0 0 0 11.292734,8.6445312 L 19.6775,13.716797 A 5,5 0 0 0 19.99,12 a 5,5 0 0 0 -5,-5 z m -7,4 a 5,5 0 0 0 -5,5 5,5 0 0 0 5,5 z m 11.6875,7.283203 -8.382812,5.070313 A 5,5 0 0 0 14.99,25 a 5,5 0 0 0 5,-5 5,5 0 0 0 -0.3125,-1.716797 z" style="opacity:0.3;fill:#dfdfdf;fill-opacity:1;fill-rule:nonzero;stroke:none;stroke-width:0.87038833;stroke-linecap:round;stroke-linejoin:round;stroke-miterlimit:4;stroke-dasharray:none;stroke-opacity:1"/>
  <path id="path856" d="M 10.49,4 A 7.5,7.5 0 0 0 2.99,11.5 7.5,7.5 0 0 0 3.4235938,13.978516 5,5 0 0 1 7.99,11 V 7.4824219 A 0.46039614,0.48242841 0 0 1 8.4607031,7 0.46039614,0.48242841 0 0 1 8.6814062,7.0644531 L 11.292734,8.6445312 A 5,5 0 0 1 14.99,7 5,5 0 0 1 16.693125,7.3027344 7.5,7.5 0 0 0 10.49,4 Z m 8.066406,4.5019531 A 5,5 0 0 1 19.99,12 5,5 0 0 1 19.6775,13.716797 l 3.082031,1.865234 a 0.46039614,0.48242841 0 0 1 0,0.835938 L 19.6775,18.283203 A 5,5 0 0 1 19.99,20 5,5 0 0 1 18.562266,23.496094 7.5,7.5 0 0 0 25.99,16 7.5,7.5 0 0 0 18.556406,8.5019531 Z M 3.4196875,18.019531 A 7.5,7.5 0 0 0 2.99,20.5 7.5,7.5 0 0 0 10.49,28 7.5,7.5 0 0 0 16.700938,24.691406 5,5 0 0 1 14.99,25 5,5 0 0 1 11.294688,23.353516 L 8.6814062,24.935547 A 0.46039614,0.48242841 0 0 1 7.99,24.517578 V 21 A 5,5 0 0 1 3.4196875,18.019531 Z" style="opacity:1;fill:#dfdfdf;fill-opacity:1;fill-rule:nonzero;stroke:none;stroke-width:1.3055824;stroke-linecap:round;stroke-linejoin:round;stroke-miterlimit:4;stroke-dasharray:none;stroke-opacity:1"/>
 </g>
</svg>

<svg xmlns="http://www.w3.org/2000/svg" width="32" height="32" x="0" y="0" version="1.1">
 <g id="22-22-mellowplayer" transform="translate(34.01,10)">
  <rect style="opacity:0.001" width="22" height="22" x="-2.01" y="0"/>
  <path style="fill:#dfdfdf" d="M 6.99,3 A 5,5 0 0 0 1.99,8 5,5 0 0 0 2.2947,9.6875 3,3 0 0 1 4.99,8 3,3 0 0 1 4.9959,8 V 5.4043 C 4.9962,5.4043 4.9732,5.138 5.1814,5.0332 5.3837,4.9315 5.5779,5.0938 5.5779,5.0938 L 7.5466,6.2637 A 3,3 0 0 1 9.99,5 3,3 0 0 1 11.142,5.2324 5,5 0 0 0 6.99,3 Z M 12.23,6.0078 A 3,3 0 0 1 12.99,8 3,3 0 0 1 12.681,9.3184 L 14.707,10.523 C 14.707,10.523 14.99,10.663 14.99,10.996 14.99,11.33 14.703,11.439 14.703,11.439 L 12.668,12.648 A 3,3 0 0 1 12.99,14 3,3 0 0 1 12.232,15.988 5,5 0 0 0 16.99,11 5,5 0 0 0 12.23,6.0078 Z M 2.2927,12.303 A 5,5 0 0 0 1.99,14 5,5 0 0 0 6.99,19 5,5 0 0 0 11.148,16.768 3,3 0 0 1 9.99,17 3,3 0 0 1 7.5252,15.705 L 5.4646,16.93 C 5.4646,16.93 5.3247,17.052 5.1462,16.973 4.9425,16.882 4.9959,16.65 4.9959,16.65 V 14 A 3,3 0 0 1 4.99,14 3,3 0 0 1 2.2927,12.303 Z"/>
  <path style="opacity:0.3;fill:#dfdfdf" d="M 9.99,5 A 3,3 0 0 0 7.5466,6.2656 L 10.219,7.8535 12.683,9.3203 A 3,3 0 0 0 12.99,8 3,3 0 0 0 9.99,5 Z M 4.99,8 A 3,3 0 0 0 1.99,11 3,3 0 0 0 4.99,14 3,3 0 0 0 4.9959,14 V 10.982 8 A 3,3 0 0 0 4.99,8 Z M 12.666,12.65 10.209,14.109 7.5232,15.705 A 3,3 0 0 0 9.99,17 3,3 0 0 0 12.99,14 3,3 0 0 0 12.666,12.65 Z"/>
 </g>
 <g id="mellowplayer" transform="translate(2.01)">
  <rect style="opacity:0.001" width="32" height="32" x="-2.01" y="0"/>
  <path style="opacity:0.3;fill:#dfdfdf" d="M 14.99,7 A 5,5 0 0 0 11.293,8.6445 L 19.677,13.717 A 5,5 0 0 0 19.99,12 5,5 0 0 0 14.99,7 Z M 7.99,11 A 5,5 0 0 0 2.99,16 5,5 0 0 0 7.99,21 Z M 19.678,18.283 11.295,23.354 A 5,5 0 0 0 14.99,25 5,5 0 0 0 19.99,20 5,5 0 0 0 19.678,18.283 Z"/>
  <path style="fill:#dfdfdf" d="M 10.49,4 A 7.5,7.5 0 0 0 2.99,11.5 7.5,7.5 0 0 0 3.4236,13.979 5,5 0 0 1 7.99,11 V 7.4824 A 0.4604,0.48243 0 0 1 8.4607,7 0.4604,0.48243 0 0 1 8.6814,7.0645 L 11.293,8.6445 A 5,5 0 0 1 14.99,7 5,5 0 0 1 16.693,7.3027 7.5,7.5 0 0 0 10.49,4 Z M 18.556,8.502 A 5,5 0 0 1 19.99,12 5,5 0 0 1 19.677,13.717 L 22.76,15.582 A 0.4604,0.48243 0 0 1 22.76,16.418 L 19.677,18.283 A 5,5 0 0 1 19.99,20 5,5 0 0 1 18.562,23.496 7.5,7.5 0 0 0 25.99,16 7.5,7.5 0 0 0 18.556,8.502 Z M 3.4197,18.02 A 7.5,7.5 0 0 0 2.99,20.5 7.5,7.5 0 0 0 10.49,28 7.5,7.5 0 0 0 16.701,24.691 5,5 0 0 1 14.99,25 5,5 0 0 1 11.295,23.354 L 8.6814,24.936 A 0.4604,0.48243 0 0 1 7.99,24.518 V 21 A 5,5 0 0 1 3.4197,18.02 Z"/>
 </g>
</svg>
